!!!!SEGMENT: pl-gd--ee-1638--005-012_marenzio-luca--il-primo-libro-de-madrigali-spirituali-a-cinque-voci-o-pieta-somma.krn
!!!cenid: 15xx:965
!!!COM: Marenzio, Luca
!!!COM-rismID:
!!!CDT: ~1553-1599/08/22
!!!CNT: Italian
!!!GTL: Il Primo libro de madrigali spirituali a cinque voci
!!!OTL: O pieta somma
!!!OMV: 012
!!!PDT: 1588
!!!AGN:
!!!SMS-siglum: PL-GD
!!!SMS-shelfmark: Ee 1638
!!!SMS-shelfwork: 005-012 G
!!!SMS-variant:
!!!SMS-altvar:
!!!NIFC-rismSourceID: 990039269
!!!NIFC-islandoraID: pl-gd:57883
!!!URL-pdf-islandora: https://repozytorium.nifc.pl/islandora/object/pl-gd%3A57883/datastream/PDF/view
!!!URL-scan: https://polish.musicsources.pl/pl/lokalizacje/galeria/klocki-introligatorskie/655 @EN{Scan on Polish Music Herritage in Open Access Website} @PL{Skany w portalu Dziedzictwo Muzyki Polskiej w otwartym dostępie}
!!!ONB-nifc: UWAGA: zbiór na stronach: Canto: s. 666-677, Alto: s. 514-525, Tenore: s. 362-373, Bassus: s. 210-221, Quinto: s. 58-69. Uwaga: utwory podzielone wg tytułów w spisach treści dostępnych na końcu każdej księgi głosowej.
!!!AIN: 1 alto 1 bass 1 soprn 2 tenor
!!!key:
!!!OMD:
!!!OMD-mod: Seconda parte
**kern	**text	**mod-text	**kern	**text	**mod-text	**kern	**text	**mod-text	**kern	**text	**mod-text	**kern	**text	**mod-text
*part5	*part5	*part5	*part4	*part4	*part4	*part3	*part3	*part3	*part2	*part2	*part2	*part1	*part1	*part1
*staff5	*staff5	*staff5	*staff4	*staff4	*staff4	*staff3	*staff3	*staff3	*staff2	*staff2	*staff2	*staff1	*staff1	*staff1
*I"BASSO	*	*	*I"QVINTO	*	*	*I"TENORE	*	*	*I"ALTO	*	*	*I"CANTO	*	*
*mI"Basso	*	*	*mI"Quinto	*	*	*mI"Tenore	*	*	*mI"Alto	*	*	*mI"Soprano	*	*
*I'B	*	*	*I'V 5	*	*	*I'T	*	*	*I'A	*	*	*I'S	*	*
*Ibass	*	*	*Itenor	*	*	*Itenor	*	*	*Ialto	*	*	*Isoprn	*	*
*ICvox	*	*	*ICvox	*	*	*ICvox	*	*	*ICvox	*	*	*ICvox	*	*
*clefF3	*	*	*clefC3	*	*	*clefC3	*	*	*clefC2	*	*	*clefG2	*	*
*mclefF4	*	*	*mclefGv2	*	*	*mclefGv2	*	*	*mclefG2	*	*	*	*	*
*k[]	*	*	*k[]	*	*	*k[]	*	*	*k[]	*	*	*k[]	*	*
*C:	*	*	*C:	*	*	*C:	*	*	*C:	*	*	*C:	*	*
*M2/1	*	*	*M2/1	*	*	*M2/1	*	*	*M2/1	*	*	*M2/1	*	*
*met(C)	*	*	*met(C)	*	*	*met(C)	*	*	*met(C)	*	*	*met(C)	*	*
=1-	=1-	=1-	=1-	=1-	=1-	=1-	=1-	=1-	=1-	=1-	=1-	=1-	=1-	=1-
!LO:TX:a:i:t=Seconda Parte:mod=	!	!	!LO:TX:a:i:t=Seconda Parte:mod=	!	!	!LO:TX:a:i:t=Seconda Parte:mod=	!	!	!LO:TX:a:i:t=Seconda Parte:mod=	!	!	!LO:TX:a:i:t=Seconda Parte:mod=	!	!
1r	.	.	1r	.	.	1r	.	.	1r	.	.	1.ee	O	O
1.A	O	O	1.c#X	O	O	1.e	O	O	1.a	O	O	.	.	.
.	.	.	.	.	.	.	.	.	.	.	.	2ee\	Pie-	pie-
=2-	=2-	=2-	=2-	=2-	=2-	=2-	=2-	=2-	=2-	=2-	=2-	=2-	=2-	=2-
.	.	.	.	.	.	.	.	.	.	.	.	0ee	-tà	-tà
2A\	Pie-	pie-	2c#/	Pie-	pie-	2e\	Pie-	pie-	2a\	Pie-	pie-	.	.	.
1A	-tà	-tà	1c#	-tà	-tà	1e	-tà	-tà	1a	-tà	-tà	.	.	.
=3-	=3-	=3-	=3-	=3-	=3-	=3-	=3-	=3-	=3-	=3-	=3-	=3-	=3-	=3-
0D	ſom-	som-	0d	ſom-	som-	2.a\	ſom-	som-	2.f\	ſom-	som-	0ff	ſom-	som-
.	.	.	.	.	.	4g\	.	.	4g\	.	.	.	.	.
.	.	.	.	.	.	4f\	.	.	1a	.	.	.	.	.
.	.	.	.	.	.	4e\	.	.	.	.	.	.	.	.
.	.	.	.	.	.	1d\	.	.	.	.	.	.	.	.
=4-	=4-	=4-	=4-	=4-	=4-	=4-	=4-	=4-	=4-	=4-	=4-	=4-	=4-	=4-
0A	ma	ma,	0e	ma	ma,	.	.	.	1a	ma	ma,	0ee	-ma	-ma,
!	!	!	!	!	!	!LO:SIC:s=4c#/:v	!	!	!	!	!	!	!	!
.	.	.	.	.	.	4c/	.	.	.	.	.	.	.	.
.	.	.	.	.	.	4B/	.	.	.	.	.	.	.	.
!	!	!	!	!	!	!LO:SIC:s=1c#:v	!	!	!	!	!	!	!	!
.	.	.	.	.	.	1c#X	.	.	2r	.	.	.	.	.
.	.	.	.	.	.	.	.	.	2e/	ò	o	.	.	.
=5-	=5-	=5-	=5-	=5-	=5-	=5-	=5-	=5-	=5-	=5-	=5-	=5-	=5-	=5-
0r	.	.	0r	.	.	1d	ma	ma,	2f\	ra-	ra-	2r	.	.
.	.	.	.	.	.	.	.	.	2f#X\	-ra_e	-ra e	2a/	ò	o
.	.	.	.	.	.	1r	.	.	2g\	no-	nuo-	2b-X/	ra-	ra-
!	!	!	!	!	!	!	!	!	!	!	!	!LO:MO:mod=!null:null	!	!
!	!	!	!	!	!	!	!	!	!	!	!	!LO:N:acc=#	!	!
.	.	.	.	.	.	.	.	.	2g#X\	-ua	-va	2bn/	-ra_e	-ra e
=6-	=6-	=6-	=6-	=6-	=6-	=6-	=6-	=6-	=6-	=6-	=6-	=6-	=6-	=6-
0r	.	.	0r	.	.	2r	.	.	2.a\	leg-	leg-	2cc\	no-	nuo-
.	.	.	.	.	.	2A/	ò	o	.	.	.	2cc#X\	-ua	-va
.	.	.	.	.	.	.	.	.	4gny\	.	.	.	.	.
.	.	.	.	.	.	2B-X/	ra-	ra-	4fny\	.	.	1dd	leg-	leg-
!	!	!	!	!	!	!	!	!	!LO:SIC:v:t=custos g	!	!	!	!	!
.	.	.	.	.	.	.	.	.	4d/	.	.	.	.	.
!	!	!	!	!	!	!LO:SIC:v:t=custos c	!	!	!	!	!	!	!	!
!	!	!	!	!	!	!LO:MO:mod=!null:null	!	!	!	!	!	!	!	!
!	!	!	!	!	!	!LO:N:acc=#	!	!	!LO:LB:g=original	!	!	!	!	!
.	.	.	.	.	.	2Bn/	-ra_e	-ra e	2.g\	.	.	.	.	.
!	!	!	!	!	!	!LO:LB:g=original	!	!	!	!	!	!	!	!
=7-	=7-	=7-	=7-	=7-	=7-	=7-	=7-	=7-	=7-	=7-	=7-	=7-	=7-	=7-
2r	.	.	2r	.	.	2cny/	no-	nuo-	.	.	.	1ee	-ge	-ge,
.	.	.	.	.	.	.	.	.	4e/	.	.	.	.	.
2A\	ò	o	2e\	ò	o	2c#X/	-ua	-va	2a\	.	.	.	.	.
2F/	ra-	ra-	2f\	ra-	ra-	1.d	leg-	leg-	1a	ge	ge,	2r	.	.
2D/	-ra_e	-ra e	2f#X\	-ra_e	-ra e	.	.	.	.	.	.	2a/	ò	o
=8-	=8-	=8-	=8-	=8-	=8-	=8-	=8-	=8-	=8-	=8-	=8-	=8-	=8-	=8-
2G\	no-	nuo-	2g\	no-	nuo-	.	.	.	1r	.	.	2b-X/	ra-	ra-
!	!	!	!	!	!	!	!	!	!	!	!	!LO:SIC:v:t=custos cc 	!	!
!	!	!	!	!	!	!	!	!	!	!	!	!LO:MO:mod=!null:null	!	!
!	!	!	!	!	!	!	!	!	!	!	!	!LO:N:acc=#	!	!
2E/	-ua	-va	2g#X\	-ua	-va	2e\	-ge	-ge,	.	.	.	2bn/	-ra_e	-ra e
!	!	!	!	!	!	!	!	!	!	!	!	!LO:LB:g=original	!	!
1A	leg-	leg-	0a	leg-	leg-	1r	.	.	2r	.	.	2ccny\	nuo-	nuo-
*	*	*	*	*	*	*	*	*	*	*ij	*ij	*	*	*
.	.	.	.	.	.	.	.	.	2e/	ò	o	2cc#X\	-ua	-va
=9-	=9-	=9-	=9-	=9-	=9-	=9-	=9-	=9-	=9-	=9-	=9-	=9-	=9-	=9-
1D	ge	ge,	.	.	.	1r	.	.	2f\	ra-	ra-	4dd\	leg-	leg-
!	!	!	!	!	!	!	!	!	!	!	!	!LO:SIC:s=8ccny\L:v	!	!
.	.	.	.	.	.	.	.	.	.	.	.	8ccny\	.	.
!	!	!	!	!	!	!	!	!	!	!	!	!LO:SIC:s=8b\J:v	!	!
.	.	.	.	.	.	.	.	.	.	.	.	8b\	.	.
.	.	.	.	.	.	.	.	.	2f#X\	-ra_e	-ra e	4a/	.	.
.	.	.	.	.	.	.	.	.	.	.	.	4b/	.	.
!	!	!	!LO:SIC:v:t=custos A	!	!	!	!	!	!	!	!	!	!	!
2r	.	.	1e	ge	ge,	2r	.	.	2g\	no-	nuo-	2cc\	.	.
*	*ij	*ij	*	*	*	*	*ij	*ij	*	*	*	*	*	*
!LO:SIC:v:t=custos F	!	!	!	!	!	!	!	!	!	!	!	!	!	!
2E/	ò	o	.	.	.	2e\	ò	o	2g#X\	-ua	-va	2b/	-ge	-ge,
!LO:LB:g=original	!	!	!LO:LB:g=original	!	!	!	!	!	!	!	!	!	!	!
=10-	=10-	=10-	=10-	=10-	=10-	=10-	=10-	=10-	=10-	=10-	=10-	=10-	=10-	=10-
2F/	ra-	ra-	2r	.	.	2cny/	ra-	ra-	1a	leg-	leg-	2r	.	.
*	*	*	*	*ij	*ij	*	*	*	*	*	*	*	*ij	*ij
2F#X/	-ra_e	-ra e	4r	.	.	4A/	-ra_e	-ra e	.	.	.	2dd\	o	o
.	.	.	4A/	ò	o	2d\	no-	nuo-	.	.	.	.	.	.
2G\	no-	nuo-	2B-X/	ra-	ra-	.	.	.	2gny\	ge	ge,	2dd\	ra-	ra-
*	*	*	*	*	*	*	*	*	*	*Xij	*Xij	*	*	*
.	.	.	.	.	.	4g\	-ua	-va	.	.	.	.	.	.
!	!	!	!LO:MO:mod=!null:null	!	!	!	!	!	!LO:MO:mod=!null:null	!	!	!	!	!
!	!	!	!LO:N:acc=#	!	!	!	!	!	!LO:N:acc=#	!	!	!	!	!
2G#X\	-ua	-va	2Bn/	-ra_e	-ra e	1e\	leg-	leg-	2bn\	-e	-e	2ee\	-ra_e	-ra e
=11-	=11-	=11-	=11-	=11-	=11-	=11-	=11-	=11-	=11-	=11-	=11-	=11-	=11-	=11-
1A	leg-	leg-	2cny/	no-	nuo-	.	.	.	1a	no-	nuo-	2.ee\	nuo-	nuo-
.	.	.	2c#X/	-ua	-va	2A/	-ge	-ge,	.	.	.	.	.	.
*	*	*	*	*	*	*	*Xij	*Xij	*	*	*	*	*	*
.	.	.	.	.	.	.	.	.	.	.	.	4ff#X\	-ua	-va
1Gny	-ge	-ge,	1d	leg-	leg-	1r	.	.	4b\	-ua	-va	4gg\	leg-	leg-
*	*Xij	*Xij	*	*	*	*	*	*	*	*	*	*	*	*
!	!	!	!	!	!	!	!	!	!	!	!	!LO:SIC:s=8ffny\L:v	!	!
.	.	.	.	.	.	.	.	.	2cc\	leg-	leg-	8ffny\	.	.
!	!	!	!	!	!	!	!	!	!	!	!	!LO:SIC:s=8ee\J:v	!	!
.	.	.	.	.	.	.	.	.	.	.	.	8ee\	.	.
.	.	.	.	.	.	.	.	.	.	.	.	4.dd\	.	.
!	!	!	!	!	!	!	!	!	!LO:SIC:s=8b\L:v	!	!	!	!	!
.	.	.	.	.	.	.	.	.	8b\	.	.	.	.	.
!	!	!	!	!	!	!	!	!	!LO:SIC:s=8a\J:v	!	!	!	!	!
.	.	.	.	.	.	.	.	.	8a\	.	.	8cc\	.	.
=12-	=12-	=12-	=12-	=12-	=12-	=12-	=12-	=12-	=12-	=12-	=12-	=12-	=12-	=12-
1r	.	.	1e	-ge	-ge,	1r	.	.	4g#X\	.	.	1b	.	.
*	*	*	*	*Xij	*Xij	*	*	*	*	*	*	*	*	*
.	.	.	.	.	.	.	.	.	2a\	.	.	.	.	.
!	!	!	!	!	!	!	!	!	!LO:SIC:s=4g#\:v	!	!	!	!	!
.	.	.	.	.	.	.	.	.	4g#X\	.	.	.	.	.
2r	.	.	2r	.	.	2r	.	.	2a\	ge	ge,	1cc	ge	ge,
*	*	*	*	*	*	*	*	*	*	*	*	*	*Xij	*Xij
!	!	!	!	!	!	!	!	!	!LO:SIC:v:t=custos g	!	!	!	!	!
2A\	Per	Per	2cny/	Per	Per	2a\	Per	Per	1e\	Per	Per	.	.	.
!	!	!	!	!	!	!	!	!	!LO:LB:g=original	!	!	!	!	!
=13-	=13-	=13-	=13-	=13-	=13-	=13-	=13-	=13-	=13-	=13-	=13-	=13-	=13-	=13-
1c	noi	noi,	1e	noi	noi,	1g	noi	noi,	.	.	.	2r	.	.
.	.	.	.	.	.	.	.	.	2gny\	noi	noi,	2cc\	Per	Per
2r	.	.	2r	.	.	2r	.	.	2r	.	.	1ee	noi	noi,
*	*	*	*	*	*	*	*ij	*ij	*	*	*	*	*	*
2A\	Per	per	1e/	Per	per	2c/	Per	per	2a\	Per	per	.	.	.
=14-	=14-	=14-	=14-	=14-	=14-	=14-	=14-	=14-	=14-	=14-	=14-	=14-	=14-	=14-
1.c	noi	noi	.	.	.	1.e	noi	noi	1g	noi	noi	2r	.	.
*	*	*	*	*	*	*	*Xij	*Xij	*	*	*	*	*	*
!	!	!	!	!	!	!	!	!	!	!	!	!LO:SIC:v:t=custos gg	!	!
.	.	.	1gny\	noi	noi	.	.	.	.	.	.	2ee\	per	per
!	!	!	!	!	!	!	!	!	!	!	!	!LO:LB:g=original	!	!
.	.	.	.	.	.	.	.	.	2cc\	of-	of-	1.gg	noi	noi
2G\	-of-	-of-	2g\	-of-	-of-	2d\	-of-	-of-	1b\	-frir-	-frir-	.	.	.
=15-	=15-	=15-	=15-	=15-	=15-	=15-	=15-	=15-	=15-	=15-	=15-	=15-	=15-	=15-
1.A	-frir-	-frir-	2e\	-frir-	-frir-	2c#X/	-frir-	-frir-	.	.	.	.	.	.
.	.	.	2fny\	-ſi_à	-si a	2d\	-ſi_à	-si a	1a\	ſi_à	si a	2ff\	of-	of-
!	!	!	!	!	!	!LO:SIC:v:t=custos a	!	!	!	!	!	!	!	!
.	.	.	0c	mor-	mor-	1e	mor-	mor-	.	.	.	1.ee	-fri-	-frir-
2E/	-ſi_à	-si a	.	.	.	.	.	.	1g\	mor-	mor-	.	.	.
!	!	!	!	!	!	!LO:LB:g=original	!	!	!	!	!	!	!	!
=16-	=16-	=16-	=16-	=16-	=16-	=16-	=16-	=16-	=16-	=16-	=16-	=16-	=16-	=16-
1.Fny	mor-	mor-	.	.	.	1.a	-te_a-	-t' a-	.	.	.	.	.	.
.	.	.	.	.	.	.	.	.	1fny\	-te_a-	-t' a-	2dd\	-ſi_à	-si a
.	.	.	1c	te_a-	-t' a-	.	.	.	.	.	.	1.cc	mor-	mor-
2C/	-te_a-	-t' a-	.	.	.	1g\	-cer-	-cer-	1e\	-cer-	-cer-	.	.	.
=17-	=17-	=17-	=17-	=17-	=17-	=17-	=17-	=17-	=17-	=17-	=17-	=17-	=17-	=17-
1.D	-cer-	-cer-	1A	-cer-	-cer-	.	.	.	.	.	.	.	.	.
.	.	.	.	.	.	1f\	-b'_e	-b' e	1d/	-b'_e	-b' e	2b/	-t'_a-	-t' a-
!	!	!	!LO:SIC:v:t=custos c	!	!	!	!	!	!	!	!	!	!	!
.	.	.	1A	-b'_e	-b' e	.	.	.	.	.	.	1a	cer-	cer-
2AA/	-b'_e	-b' e	.	.	.	2.e\	du-	du-	2.c/	du-	du-	.	.	.
!	!	!	!LO:LB:g=original	!	!	!	!	!	!	!	!	!	!	!
=18-	=18-	=18-	=18-	=18-	=18-	=18-	=18-	=18-	=18-	=18-	=18-	=18-	=18-	=18-
2.E/	du-	du-	1.c	du-	du-	.	.	.	.	.	.	1g	-b'_e	-b' e
.	.	.	.	.	.	4f\	.	.	4d/	.	.	.	.	.
.	.	.	.	.	.	1g\	.	.	1e\	.	.	.	.	.
!LO:SIC:v:t=custos C	!	!	!	!	!	!	!	!	!	!	!	!	!	!
4F/	.	.	.	.	.	.	.	.	.	.	.	.	.	.
!LO:LB:g=original	!	!	!	!	!	!	!	!	!	!	!	!	!	!
0G	.	.	.	.	.	.	.	.	.	.	.	0g	du-	du-
.	.	.	4B/	.	.	2G/	ra	ra	4d/	.	.	.	.	.
.	.	.	4A/	.	.	.	.	.	4c/	.	.	.	.	.
=19-	=19-	=19-	=19-	=19-	=19-	=19-	=19-	=19-	=19-	=19-	=19-	=19-	=19-	=19-
.	.	.	1B	.	.	1r	.	.	1d	.	.	.	.	.
1C	-ra	-ra	1c	-ra	-ra	2r	.	.	0e	ra	ra	1g	-ra	-ra
.	.	.	.	.	.	2G/	Che'l	Che'l	.	.	.	.	.	.
=20-	=20-	=20-	=20-	=20-	=20-	=20-	=20-	=20-	=20-	=20-	=20-	=20-	=20-	=20-
2C/	Che'l	Che'l	1r	.	.	1g	ciel	ciel,	.	.	.	2r	.	.
1c\	ciel	ciel,	.	.	.	.	.	.	.	.	.	2g/	Che'l	Che'l
.	.	.	2c/	Che'l	Che'l	4e\	l'a-	l'a-	2g\	Che'l	Che'l	1gg	ciel	ciel,
.	.	.	.	.	.	4cny/	.	.	.	.	.	.	.	.
2G\	che'l	che'l	2g\	ciel	ciel,	4d\	.	.	2b\	ciel	ciel,	.	.	.
.	.	.	.	.	.	4e\	.	.	.	.	.	.	.	.
=21-	=21-	=21-	=21-	=21-	=21-	=21-	=21-	=21-	=21-	=21-	=21-	=21-	=21-	=21-
1d	ciel	ciel,	1r	.	.	4f\	.	.	2.a\	l'a-	l'a-	4ff\	l'a-	l'a-
.	.	.	.	.	.	4g\	.	.	.	.	.	4ee\	.	.
.	.	.	.	.	.	4a\	.	.	.	.	.	4ff\	.	.
.	.	.	.	.	.	4f\	.	.	4b\	.	.	4dd\	.	.
4c\	l'a-	l'a-	4e\	l'a-	l'a-	2g\	.	.	1cc	.	.	1ee	.	.
4B\	.	.	4d\	.	.	.	.	.	.	.	.	.	.	.
4A\	.	.	4c/	.	.	2a\	er	er,	.	.	.	.	.	.
4B\	.	.	4d\	.	.	.	.	.	.	.	.	.	.	.
=22-	=22-	=22-	=22-	=22-	=22-	=22-	=22-	=22-	=22-	=22-	=22-	=22-	=22-	=22-
1c	.	.	4e\	.	.	2r	.	.	1g	er	er,	2ee\	-er	-er,
.	.	.	4f\	.	.	.	.	.	.	.	.	.	.	.
.	.	.	4g\	.	.	2e\	la	la	.	.	.	1cc\	la	la
.	.	.	4e\	.	.	.	.	.	.	.	.	.	.	.
2F/	-er	-er,	2f\	.	.	1A	ter-	ter-	2r	.	.	.	.	.
!	!	!	!	!	!	!	!	!	!LO:SIC:v:t=custos A	!	!	!	!	!
2A\	la	la	1e\	er	er,	.	.	.	1a\	la	la	1c/	ter-	ter-
=23-	=23-	=23-	=23-	=23-	=23-	=23-	=23-	=23-	=23-	=23-	=23-	=23-	=23-	=23-
!	!	!	!	!	!	!LO:SIC:v:t=custos e	!	!	!	!	!	!	!	!
1AA	ter-	ter-	.	.	.	1A	-ra_e'l	-ra e'l	.	.	.	.	.	.
!	!	!	!	!	!	!	!	!	!LO:LB:g=original	!	!	!	!	!
.	.	.	2e\	la	la	.	.	.	1A/	ter-	ter-	2c/	-ra_e'l	-ra e'l
!	!	!	!	!	!	!LO:LB:g=original	!	!	!	!	!	!	!	!
1.AA	-ra_e'l	-ra e'l	2E/	ter-	ter-	2.e\	mar	mar,	.	.	.	2.cc\	mar	mar,
!	!	!	!LO:SIC:v:t=custos e	!	!	!	!	!	!	!	!	!	!	!
.	.	.	2E/	-ra_e'l	-ra e'l	.	.	.	2e/	-ra_e'l	-ra e'l	.	.	.
!	!	!	!	!	!	!	!	!	!	!	!	!LO:SIC:v:t=custos a	!	!
.	.	.	.	.	.	4d\	.	.	.	.	.	4b/	.	.
!	!	!	!LO:LB:g=original	!	!	!	!	!	!	!	!	!LO:LB:g=original	!	!
=24-	=24-	=24-	=24-	=24-	=24-	=24-	=24-	=24-	=24-	=24-	=24-	=24-	=24-	=24-
.	.	.	2.e\	mar	mar	4c/	.	.	4e/	mar	mar	4a/	.	.
.	.	.	.	.	.	4B/	.	.	4d/	.	.	4b/	.	.
2.A\	mar	mar	.	.	.	4A/	.	.	4c/	.	.	4cc\	.	.
.	.	.	4d\	.	.	4B/	.	.	4B/	.	.	4dd\	.	.
.	.	.	4c/	.	.	4c/	.	.	2A/	.	.	2ee\	.	.
4B\	.	.	4B/	.	.	4d\	.	.	.	.	.	.	.	.
4c\	.	.	4A/	.	.	2e\	.	.	2a\	cor-	cor-	2cc\	e'l	e'l
4d\	.	.	4B/	.	.	.	.	.	.	.	.	.	.	.
=25-	=25-	=25-	=25-	=25-	=25-	=25-	=25-	=25-	=25-	=25-	=25-	=25-	=25-	=25-
4e\	.	.	1c	.	.	2r	.	.	1g	-reg-	-reg-	4gg\	mar	mar
!LO:SIC:v:t=custos c	!	!	!	!	!	!	!	!	!	!	!	!	!	!
4d\	.	.	.	.	.	.	.	.	.	.	.	4ff\	.	.
!LO:LB:g=original	!	!	!	!	!	!	!	!	!	!	!	!	!	!
4c\	.	.	.	.	.	2e\	e'l	e'l	.	.	.	4ee\	.	.
4B\	.	.	.	.	.	.	.	.	.	.	.	4dd\	.	.
4A\	.	.	2c/	cor-	cor-	2e\	mar	mar	1a	-ge	-ge,	4cc\	.	.
4G\	.	.	.	.	.	.	.	.	.	.	.	4b/	.	.
4F/	.	.	2.d\	-reg-	-reg-	2f\	cor-	cor-	.	.	.	4a/	.	.
4E/	.	.	.	.	.	.	.	.	.	.	.	4g/	.	.
=26-	=26-	=26-	=26-	=26-	=26-	=26-	=26-	=26-	=26-	=26-	=26-	=26-	=26-	=26-
2D/	.	.	.	.	.	2.a\	-reg-	-reg-	0r	.	.	2f/	.	.
.	.	.	4e\	.	.	.	.	.	.	.	.	.	.	.
2d\	cor-	cor-	2.f\	.	.	.	.	.	.	.	.	2a/	cor-	cor-
!	!	!	!	!	!	!LO:SIC:s=8g\L:v	!	!	!	!	!	!	!	!
.	.	.	.	.	.	8g\	.	.	.	.	.	.	.	.
!	!	!	!	!	!	!LO:SIC:s=8f\J:v	!	!	!	!	!	!	!	!
.	.	.	.	.	.	8f\	.	.	.	.	.	.	.	.
1c	-reg-	-reg-	.	.	.	1g	.	.	.	.	.	1cc	-reg-	-reg-
!	!	!	!LO:SIC:s=8e\L:v	!	!	!	!	!	!	!	!	!	!	!
.	.	.	8e\	.	.	.	.	.	.	.	.	.	.	.
!	!	!	!LO:SIC:s=8d\J:v	!	!	!	!	!	!	!	!	!	!	!
.	.	.	8d\	.	.	.	.	.	.	.	.	.	.	.
.	.	.	2e\	.	.	.	.	.	.	.	.	.	.	.
=27-	=27-	=27-	=27-	=27-	=27-	=27-	=27-	=27-	=27-	=27-	=27-	=27-	=27-	=27-
0F	-ge	-ge,	1f	-ge	-ge,	1a	ge	ge,	1r	.	.	1cc	-ge	-ge,
.	.	.	2r	.	.	1r	.	.	2.a\	Laſ-	Las-	2r	.	.
.	.	.	1a\	Laſ-	Las-	.	.	.	.	.	.	1ff\	Laſ-	Las-
.	.	.	.	.	.	.	.	.	4b\	.	.	.	.	.
=28-	=28-	=28-	=28-	=28-	=28-	=28-	=28-	=28-	=28-	=28-	=28-	=28-	=28-	=28-
0r	.	.	.	.	.	0r	.	.	2cc\	.	.	.	.	.
.	.	.	2g\	-ſa	-sa	.	.	.	2b\	-ſa	-sa	2ee\	-ſa	-sa
.	.	.	2g\	men-	men-	.	.	.	2b\	men-	men-	2ee\	men-	men-
.	.	.	4f\	-t'_in-	-t' in-	.	.	.	4a\	-t'_in	-t' in-	4dd\	-te_in-	-t' in-
!	!	!	!	!	!	!	!	!	!LO:SIC:s=4g\:v	!	!	!	!	!
.	.	.	4e\	-fe-	-fe-	.	.	.	4g#X\	fe-	fe-	4cc\	-fe-	-fe-
=29-	=29-	=29-	=29-	=29-	=29-	=29-	=29-	=29-	=29-	=29-	=29-	=29-	=29-	=29-
0r	.	.	2f\	-li-	-li-	0r	.	.	2a\	-li-	-li-	2dd\	-li-	-li-
!	!	!	!LO:SIC:v:t=custos f	!	!	!	!	!	!	!	!	!LO:SIC:v:t=custos dd	!	!
.	.	.	4e\	-ce_o-	-ce, o-	.	.	.	4gny\	-ce_o-	-ce, o-	4cc\	-ce_o-	-ce, o-
!	!	!	!LO:LB:g=original	!	!	!	!	!	!	!	!	!LO:LB:g=original	!	!
.	.	.	2f\	gn'_al-	gn' al-	.	.	.	2a\	-gn'_al-	-gn' al-	2dd\	-gn'_al-	-gn' al-
.	.	.	.	.	.	.	.	.	.	.	.	.	.	.
.	.	.	4e\	-tra	-tra	.	.	.	4g\	-tra	-tra	4cc\	-tra	-tra
.	.	.	2d\	cu-	cu-	.	.	.	2f\	cu-	cu-	2b/	cu-	cu-
=30-	=30-	=30-	=30-	=30-	=30-	=30-	=30-	=30-	=30-	=30-	=30-	=30-	=30-	=30-
!	!	!	!	!	!	!	!	!	!LO:SIC:v:t=custos g	!	!	!	!	!
1r	.	.	1c	-ra	-ra.	2r	.	.	4e/	-ra	-ra.	1cc	-ra	-ra.
!	!	!	!	!	!	!	!	!	!LO:LB:g=original	!	!	!	!	!
.	.	.	.	.	.	.	.	.	4g\	Ve-	Ve-	.	.	.
.	.	.	.	.	.	2c/	Ve-	Ve-	4g\	-di_il	-di il	.	.	.
.	.	.	.	.	.	.	.	.	4g\	paſ-	pa-	.	.	.
2F/	Ve-	Ve-	1r	.	.	4c/	-di_il	-di il	2a\	-tor	-stor	1r	.	.
.	.	.	.	.	.	4c/	paſ-	pa-	.	.	.	.	.	.
!	!	!	!	!	!	!LO:SIC:v:t=custos d	!	!	!	!	!	!	!	!
4F/	-di_il	-di il	.	.	.	2d\	-tor	-stor	2a\	che	che	.	.	.
4F/	paſ-	pa-	.	.	.	.	.	.	.	.	.	.	.	.
!	!	!	!	!	!	!LO:LB:g=original	!	!	!	!	!	!	!	!
=31-	=31-	=31-	=31-	=31-	=31-	=31-	=31-	=31-	=31-	=31-	=31-	=31-	=31-	=31-
2G\	-tor	-stor	1r	.	.	2d\	che	che	4b\	và	va	1r	.	.
.	.	.	.	.	.	.	.	.	4a\	per	per	.	.	.
2G\	che	che	.	.	.	4e\	và	va	4g\	le	le	.	.	.
.	.	.	.	.	.	4d\	per	per	4f\	ſue	sue	.	.	.
4A\	và	va	2r	.	.	4c/	le	le	2e/	greg-	greg-	2cc\	Ve-	Ve-
4G\	per	per	.	.	.	4B/	ſue	sue	.	.	.	.	.	.
4F/	le	le	2f\	Ve-	Ve-	1A/	greg-	greg-	2a\	ge	ge,	4cc\	-di_il	-di il
4E/	ſue	sue	.	.	.	.	.	.	.	.	.	4cc\	paſ-	pa-
=32-	=32-	=32-	=32-	=32-	=32-	=32-	=32-	=32-	=32-	=32-	=32-	=32-	=32-	=32-
2D/	greg-	greg-	4f\	-di_il	-di il	.	.	.	0r	.	.	2dd\	-tor	-stor
.	.	.	4f\	paſ-	pa-	.	.	.	.	.	.	.	.	.
!LO:SIC:v:t=custos c	!	!	!	!	!	!	!	!	!	!	!	!	!	!
2G\	ge	ge,	2g\	-tor	-stor	2B/	ge	ge,	.	.	.	2dd\	che	che
*	*ij	*ij	*	*	*	*	*	*	*	*	*	*	*	*
!LO:LB:g=original	!	!	!	!	!	!	!	!	!	!	!	!	!	!
2c\	Ve-	ve-	2g\	che	che	1r	.	.	.	.	.	4ee\	và	va
.	.	.	.	.	.	.	.	.	.	.	.	4dd\	per	per
4c\	-di_il	-di il	4a\	và	va	.	.	.	.	.	.	4cc\	le	le
4c\	paſ-	pa-	4g\	per	per	.	.	.	.	.	.	4b/	ſue	sue
=33-	=33-	=33-	=33-	=33-	=33-	=33-	=33-	=33-	=33-	=33-	=33-	=33-	=33-	=33-
*	*	*	*	*	*	*	*	*	*	*ij	*ij	*	*	*
2d\	-tor	-stor	4f\	le	le	0r	.	.	2f\	Ve-	ve-	2.a/	greg-	greg-
.	.	.	4e\	ſue	sue	.	.	.	.	.	.	.	.	.
2d\	che	che	2d\	greg-	greg-	.	.	.	4f\	di_il	di il	.	.	.
.	.	.	.	.	.	.	.	.	4f\	paſ-	pa-	4b/	.	.
4e\	và	va	1c	ge	ge,	.	.	.	2g\	-tor	-stor	4cc\	.	.
4d\	per	per	.	.	.	.	.	.	.	.	.	4dd\	.	.
4c\	le	le	.	.	.	.	.	.	2g\	che	che	2.ee\	.	.
4B\	ſue	sue	.	.	.	.	.	.	.	.	.	.	.	.
=34-	=34-	=34-	=34-	=34-	=34-	=34-	=34-	=34-	=34-	=34-	=34-	=34-	=34-	=34-
*	*	*	*	*	*	*	*ij	*ij	*	*	*	*	*	*
1A	greg-	greg-	0r	.	.	2c/	Ve-	ve-	4a\	và	va	.	.	.
.	.	.	.	.	.	.	.	.	4b\	per	per	4dd\	.	.
.	.	.	.	.	.	4c/	-di_il	-di il	4cc\	le	le	4ee\	.	.
!	!	!	!	!	!	!	!	!	!	!	!	!LO:SIC:v:t=custos gg	!	!
.	.	.	.	.	.	4c/	paſ-	pa-	4a\	ſue	sue	4ff\	.	.
!	!	!	!	!	!	!	!	!	!	!	!	!LO:LB:g=original	!	!
1G	ge	ge	.	.	.	2d\	-tor	-stor	1.b	greg-	greg-	2gg\	.	.
*	*Xij	*Xij	*	*	*	*	*	*	*	*	*	*	*	*
.	.	.	.	.	.	2d\	che	che	.	.	.	4dd\	-ge	-ge,
.	.	.	.	.	.	.	.	.	.	.	.	4gg\	che	che
=35-	=35-	=35-	=35-	=35-	=35-	=35-	=35-	=35-	=35-	=35-	=35-	=35-	=35-	=35-
0r	.	.	2r	.	.	4e\	và	va	.	.	.	4gg\	và	va
.	.	.	.	.	.	4d\	per	per	.	.	.	4ff\	per	per
!	!	!	!LO:SIC:v:t=custos c	!	!	!	!	!	!	!	!	!	!	!
.	.	.	2g\	Che	che	4c/	le	le	2e/	ge	ge	4ee\	le	le
*	*	*	*	*	*	*	*	*	*	*Xij	*Xij	*	*	*
.	.	.	.	.	.	4B/	ſue	sue	.	.	.	4dd\	ſue	sue
!	!	!	!LO:LB:g=original	!	!	!	!	!	!LO:SIC:v:t=custos d	!	!	!	!	!
.	.	.	4c/	-và	-va	1A	greg-	greg-	1r	.	.	1.cc	greg-	greg-
.	.	.	4d\	per	per	.	.	.	.	.	.	.	.	.
.	.	.	4e\	le	le	.	.	.	.	.	.	.	.	.
.	.	.	4f\	ſue	sue	.	.	.	.	.	.	.	.	.
!	!	!	!	!	!	!	!	!	!LO:LB:g=original	!	!	!	!	!
=36-	=36-	=36-	=36-	=36-	=36-	=36-	=36-	=36-	=36-	=36-	=36-	=36-	=36-	=36-
1r	.	.	1g	greg-	greg-	1G	ge	ge	0r	.	.	.	.	.
*	*	*	*	*	*	*	*Xij	*Xij	*	*	*	*	*	*
.	.	.	.	.	.	.	.	.	.	.	.	4b/	.	.
.	.	.	.	.	.	.	.	.	.	.	.	4a/	.	.
1.G	co-	Co-	1d	ge	ge	2r	.	.	.	.	.	1b	-ge	-ge
.	.	.	.	.	.	1B/	co-	Co-	.	.	.	.	.	.
=37-	=37-	=37-	=37-	=37-	=37-	=37-	=37-	=37-	=37-	=37-	=37-	=37-	=37-	=37-
.	.	.	0r	.	.	.	.	.	1.d	co-	Co-	0r	.	.
2F/	-me_a-	-m' a-	.	.	.	2A/	-m'_a-	-m' a-	.	.	.	.	.	.
1.F	-gnel	-gnel	.	.	.	1.A	-gnel	-gnel	.	.	.	.	.	.
.	.	.	.	.	.	.	.	.	2c/	-m'_a-	-m' a-	.	.	.
=38-	=38-	=38-	=38-	=38-	=38-	=38-	=38-	=38-	=38-	=38-	=38-	=38-	=38-	=38-
.	.	.	0r	.	.	.	.	.	1c	-gnel	-gnel	0r	.	.
1E/	man-	man-	.	.	.	1G/	man-	man-	.	.	.	.	.	.
.	.	.	.	.	.	.	.	.	2B/	man-	man-	.	.	.
!	!	!	!	!	!	!LO:SIC:v:t=custos F#	!	!	!	!	!	!	!	!
2G\	-ſue-	-sue-	.	.	.	2G/	-ſu-	-su-	2B/	-ſue-	-sue-	.	.	.
!	!	!	!	!	!	!LO:LB:g=original	!	!	!	!	!	!	!	!
=39-	=39-	=39-	=39-	=39-	=39-	=39-	=39-	=39-	=39-	=39-	=39-	=39-	=39-	=39-
!	!	!	!LO:TX:t=P:problem:brak pauzy 1r	!	!	!	!	!	!	!	!	!	!	!
1D	-to	-to	1ryy	.	.	1F#X	-e-	-e-	1A	-to	-to	0r	.	.
1D	à	a	2r	.	.	1F#y	-to	-to,	2A/	à	a	.	.	.
.	.	.	2A/	à	a	.	.	.	1d/	la	la	.	.	.
=40-	=40-	=40-	=40-	=40-	=40-	=40-	=40-	=40-	=40-	=40-	=40-	=40-	=40-	=40-
!LO:SIC:v:t=custos G	!	!	!	!	!	!	!	!	!	!	!	!	!	!
2G\	la	la	2B/	la	la	0r	.	.	.	.	.	1r	.	.
!LO:LB:g=original	!	!	!	!	!	!	!	!	!	!	!	!	!	!
2G\	ton-	ton-	2B/	ton-	ton-	.	.	.	2e/	ton-	ton-	.	.	.
*	*	*	*	*	*	*	*	*	*	*	*	*	*ij	*ij
2.F/	-ſu-	-su-	4A/	-ſu-	-su-	.	.	.	4f\	-ſu-	-su-	2cc\	Ve-	ve-
.	.	.	4B/	.	.	.	.	.	4g\	.	.	.	.	.
.	.	.	2.c/	.	.	.	.	.	4a\	.	.	4cc\	-di_il	-di il
4E/	.	.	.	.	.	.	.	.	4g\	.	.	4cc\	paſ-	pa-
=41-	=41-	=41-	=41-	=41-	=41-	=41-	=41-	=41-	=41-	=41-	=41-	=41-	=41-	=41-
1D	.	.	.	.	.	4r	.	.	2f\	.	.	2dd\	-tor	-stor
!	!	!	!LO:SIC:s=8B/L:v	!	!	!	!	!	!	!	!	!	!	!
.	.	.	8B/	.	.	4f\	Ve-	ve-	.	.	.	.	.	.
!	!	!	!LO:SIC:s=8A/J:v	!	!	!	!	!	!	!	!	!	!	!
.	.	.	8A/	.	.	.	.	.	.	.	.	.	.	.
.	.	.	2B/	.	.	4f\	-di_il	-di il	2d/	ra	ra,	2dd\	che	che
.	.	.	.	.	.	4f\	paſ-	pa-	.	.	.	.	.	.
4C/	-ra	-ra,	1e	ra	ra,	4g\	-tor	-stor	1r	.	.	4.ee\	và	va
4c\	Ve-	Ve-	.	.	.	4g\	che	che	.	.	.	.	.	.
!	!	!	!	!	!	!	!	!	!	!	!	!LO:SIC:v:t=custos cc	!	!
.	.	.	.	.	.	.	.	.	.	.	.	8dd\	per	per
!	!	!	!	!	!	!	!	!	!	!	!	!LO:LB:g=original	!	!
4c\	-di_il	-di il	.	.	.	4a\	và	va	.	.	.	4cc\	le	le
4c\	paſ-	pa-	.	.	.	4g\	per	per	.	.	.	4b/	ſue	sue
=42-	=42-	=42-	=42-	=42-	=42-	=42-	=42-	=42-	=42-	=42-	=42-	=42-	=42-	=42-
2d\	-tor	-stor	1r	.	.	4.f\	le	le	2f\	Ve-	Ve-	2a/	greg-	greg-
.	.	.	.	.	.	8e\	ſue	sue	.	.	.	.	.	.
2d\	che	che	.	.	.	2d\	greg-	greg-	4f\	-di_il	-di il	2a/	-ge	-ge,
.	.	.	.	.	.	.	.	.	4f\	paſ-	pa-	.	.	.
4e\	và	va	2r	.	.	2.c/	ge	ge	2g\	-tor	-stor	2cc\	che	che
4d\	per	per	.	.	.	.	.	.	.	.	.	.	.	.
4c\	le	le	2g\	che	che	.	.	.	2e/	che	che	4ee\	và	va
4B\	ſue	sue	.	.	.	4d\	.	.	.	.	.	4dd\	per	per
=43-	=43-	=43-	=43-	=43-	=43-	=43-	=43-	=43-	=43-	=43-	=43-	=43-	=43-	=43-
1A	greg-	greg-	4c/	và	va	2.e\	.	.	4a\	và	va	4cc\	le	le
!	!	!	!LO:SIC:v:t=custos e	!	!	!	!	!	!	!	!	!	!	!
.	.	.	4d\	per	per	.	.	.	4b\	per	per	4b/	ſue	sue
!	!	!	!LO:LB:g=original	!	!	!	!	!	!	!	!	!	!	!
.	.	.	4e\	le	le	.	.	.	4cc\	le	le	2a/	greg-	greg-
!	!	!	!	!	!	!	!	!	!LO:SIC:v:t=custos b	!	!	!	!	!
.	.	.	4c/	ſue	sue	4f\	.	.	4a\	ſue	sue	.	.	.
!	!	!	!	!	!	!	!	!	!LO:LB:g=original	!	!	!	!	!
1G	ge	ge	2d\	greg-	greg-	1g	.	.	2b\	greg-	greg-	1dd	-ge	-ge
*	*	*	*	*	*	*	*	*	*	*	*	*	*Xij	*Xij
.	.	.	2B/	ge	ge	.	.	.	2g\	ge	ge	.	.	.
=44-	=44-	=44-	=44-	=44-	=44-	=44-	=44-	=44-	=44-	=44-	=44-	=44-	=44-	=44-
0r	.	.	1.g	Co-	Co-	0r	.	.	1.b	c-	Co-	1r	.	.
.	.	.	.	.	.	.	.	.	.	.	.	1.dd	co-	Co-
.	.	.	2f\	-m'_a-	-m' a-	.	.	.	2a\	m'_a-	m' a-	.	.	.
=45-	=45-	=45-	=45-	=45-	=45-	=45-	=45-	=45-	=45-	=45-	=45-	=45-	=45-	=45-
0r	.	.	1.f	-gnel	-gnel	0r	.	.	1.a	-gnel	-gnel	.	.	.
.	.	.	.	.	.	.	.	.	.	.	.	2cc\	m'_a-	m' a-
.	.	.	.	.	.	.	.	.	.	.	.	1cc	-gnel	-gnel
.	.	.	1e\	man-	man-	.	.	.	1g\	-man-	-man-	.	.	.
=46-	=46-	=46-	=46-	=46-	=46-	=46-	=46-	=46-	=46-	=46-	=46-	=46-	=46-	=46-
0r	.	.	.	.	.	0r	.	.	.	.	.	2b/	ma(n)-	man-
.	.	.	2g\	-ſu-	-su-	.	.	.	2g\	-ſue-	-sue-	2b/	-ſue-	-sue-
.	.	.	1d	-e-	-e-	.	.	.	1f#X	to	to	1a	-to	-to
=47-	=47-	=47-	=47-	=47-	=47-	=47-	=47-	=47-	=47-	=47-	=47-	=47-	=47-	=47-
2r	.	.	1d	-to	-to,	2r	.	.	1f#y	à	a	2a/	à	a
2D/	à	a	.	.	.	2a\	à	a	.	.	.	1dd\	la	la
!LO:SIC:v:t=custos d	!	!	!	!	!	!	!	!	!	!	!	!	!	!
2d\	la	la	1r	.	.	2f#X\	la	la	2a\	la	la	.	.	.
!LO:LB:g=original	!	!	!	!	!	!LO:SIC:v:t=custos g	!	!	!	!	!	!	!	!
2d\	ton-	ton-	.	.	.	2f#\	ton-	ton-	2b\	ton-	ton-	2dd\	ton-	ton-
!	!	!	!	!	!	!LO:LB:g=original	!	!	!	!	!	!	!	!
=48-	=48-	=48-	=48-	=48-	=48-	=48-	=48-	=48-	=48-	=48-	=48-	=48-	=48-	=48-
2.c\	ſu-	su-	0r	.	.	4g\	ſu-	su-	4cc\	ſu-	su-	2.ee\	-ſu-	-su-
!	!	!	!	!	!	!	!	!	!LO:SIC:s=8b\L:v	!	!	!	!	!
.	.	.	.	.	.	4fny\	.	.	8b\	.	.	.	.	.
!	!	!	!	!	!	!	!	!	!LO:SIC:s=8a\J:v	!	!	!	!	!
.	.	.	.	.	.	.	.	.	8a\	.	.	.	.	.
.	.	.	.	.	.	2.e\	.	.	2.g\	.	.	.	.	.
!	!	!	!	!	!	!	!	!	!	!	!	!LO:SIC:v:t=custos cc	!	!
4B\	.	.	.	.	.	.	.	.	.	.	.	4dd\	.	.
!	!	!	!	!	!	!	!	!	!	!	!	!LO:LB:g=original	!	!
1A	.	.	.	.	.	.	.	.	.	.	.	1cc	.	.
!	!	!	!	!	!	!	!	!	!LO:SIC:s=8f#y\L:v	!	!	!	!	!
.	.	.	.	.	.	4d\	.	.	8f#y\	.	.	.	.	.
!	!	!	!	!	!	!	!	!	!LO:SIC:s=8e\J:v	!	!	!	!	!
.	.	.	.	.	.	.	.	.	8e\	.	.	.	.	.
.	.	.	.	.	.	2c/	.	.	2f#X\	.	.	.	.	.
=49-	=49-	=49-	=49-	=49-	=49-	=49-	=49-	=49-	=49-	=49-	=49-	=49-	=49-	=49-
1G	ra	ra,	1r	.	.	1d	ra	ra,	1g	ra	ra,	1b	-ra	-ra,
1.C	Co-	Co-	2r	.	.	2r	.	.	2r	.	.	2r	.	.
.	.	.	1c\	Co-	co-	1g\	Co-	co-	1cc\	Co-	co-	1ee\	co-	co-
=50-	=50-	=50-	=50-	=50-	=50-	=50-	=50-	=50-	=50-	=50-	=50-	=50-	=50-	=50-
.	.	.	.	.	.	.	.	.	.	.	.	.	.	.
2G\	m'_a-	m' a-	2d\	-me_a-	-me a-	2g\	-m'_a-	-m' a-	2b\	-m'_a-	-m' a-	2dd\	m'_a-	m' a-
!	!	!	!	!	!	!	!	!	!LO:SIC:v:t=custos b	!	!	!	!	!
1G	-gnel	-gnel	1d	-gnel	-gnel	1g	-gnel	-gnel	1b	-gnel	-gnel	1dd	-gnel	-gnel
!	!	!	!	!	!	!	!	!	!LO:LB:g=original	!	!	!	!	!
=51-	=51-	=51-	=51-	=51-	=51-	=51-	=51-	=51-	=51-	=51-	=51-	=51-	=51-	=51-
2G\	man-	man-	2d\	man-	man-	2g\	ma(n)-	man-	2b\	man-	man-	2dd\	man-	man-
2A\	-ſue-	-sue-	2A/	-ſu-	-sue-	2e\	-ſue-	-sue-	2a\	-ſue-	-sue-	2cc\	-ſue-	-sue-
1E	-to	-to	1B	-e-	-to	1e	-to	-to	1g#X	-to	-to	1b	-to	-to
=52-	=52-	=52-	=52-	=52-	=52-	=52-	=52-	=52-	=52-	=52-	=52-	=52-	=52-	=52-
!	!	!	!LO:SIC:v:t=custos c	!	!	!	!	!	!	!	!	!	!	!
1E	à	a	1B	-to_à	a	0e	à	a	1g#y	à	a	2b/	à	a
.	.	.	.	.	.	.	.	.	.	.	.	1ee\	la	la
!	!	!	!LO:LB:g=original	!	!	!	!	!	!	!	!	!	!	!
1A	la	la	1c#X	la	la	.	.	.	1a	la	la	.	.	.
.	.	.	.	.	.	.	.	.	.	.	.	1a/	ton-	ton-
=53-	=53-	=53-	=53-	=53-	=53-	=53-	=53-	=53-	=53-	=53-	=53-	=53-	=53-	=53-
1D	ton-	ton-	1d	ton-	ton-	2a\	la	la	1f#X	ton-	ton-	.	.	.
.	.	.	.	.	.	2A/	ton-	ton-	.	.	.	2.dd\	-ſu-	-su-
*	*	*	*	*	*	*lig	*	*	*	*	*	*	*	*
2.E/	-ſu-	-su-	0G	-ſu-	-su-	1e	-ſu-	-su-	0gny	-ſu-	-su-	.	.	.
.	.	.	.	.	.	.	.	.	.	.	.	4cc\	.	.
.	.	.	.	.	.	.	.	.	.	.	.	2.cc\	.	.
4F/	.	.	.	.	.	.	.	.	.	.	.	.	.	.
=54-	=54-	=54-	=54-	=54-	=54-	=54-	=54-	=54-	=54-	=54-	=54-	=54-	=54-	=54-
1G	.	.	.	.	.	1d	.	.	.	.	.	.	.	.
!	!	!	!	!	!	!	!	!	!	!	!	!LO:SIC:s=8b/L:v	!	!
.	.	.	.	.	.	.	.	.	.	.	.	8b/	.	.
!	!	!	!	!	!	!	!	!	!	!	!	!LO:SIC:s=8a/J:v	!	!
.	.	.	.	.	.	.	.	.	.	.	.	8a/	.	.
.	.	.	.	.	.	.	.	.	.	.	.	2b/	.	.
*	*	*	*	*	*	*Xlig	*	*	*	*	*	*	*	*
1Cl	ra.	ra.	1Gl	ra.	ra.	1cl	ra.	ra.	1el	ra.	ra.	1ccl	-ra.	-ra.
==	==	==	==	==	==	==	==	==	==	==	==	==	==	==
*-	*-	*-	*-	*-	*-	*-	*-	*-	*-	*-	*-	*-	*-	*-
!!!system-decoration: [(s1,s2,s3,s4,s5)]
!!!RDF**kern: l = terminal long
!!!filter-modern: tie -s | humtr -p | sic -sq | shed -e "s/LO:DY:(a|b|rj)/LO:dy:$1/L" | shed -e "s/TX(.*):t=P:/tx$1:t=P:/LG" | modori -m | autostem -r | shed -e "s/yy//" | shed -k -e "s/\(y([^y])/($1/" | shed -e "s/-//B" | shed -e "s/^(\d+[\/\\]right)/$1yy/I; s/^(\d+[\/\\]left)/$1yy/I" | shed -e "s/^(X?)rep$/$1REP/I" | shed -k -e "s/[<>]//g" | shed -e "s/^custos:/Xcustos:/I" | shed -k -e "s/:TUP:/:tup:/L" | shed -k -e "s/r[a-gA-G]+/r/D" | rid -li
!!!ENC: Marta Opryszak
!!!END: 2022-06-29
!!!ENC: Andrzej Kubiczek
!!!END: 2022-07-21
!!!EED-modern: Antoni Szymański
!!!END-modern: 2022-08-09
